X: 9
T: Inventio 9
C: Johann Sebastian Bach
%%abc-version 2.0
%%abcx-abcm2ps-target-version 5.9.1 (29 Sep 2008)
%%abc-creator hum2abc beta
%%abcx-conversion-date 2021/01/28 10:10:55
%%abc-copyright Copyright 1994, David Huron
%%abc-edited-by David Huron
%%abcx-initial-encoding-date 1986 November
%%gracespace 0 6 6
%%humdrum-veritas 3931186553
%%humdrum-veritas-data 1915138913
%%linebreak <none>
%%barnumbers 0
L: 1/16
M: 3/4
N: Derived from inven09.krn
Q: 1/4=58
%%staves {1 2}
V: 1 clef=treble
V: 2 clef=bass
K: Ab
[V:1] c B A G A2 F2d4- | 
[V:2] F,,2 F,2- F, G, A, G, F, E, D, C, | 
[V:1] d c B =A B2 G2=e4- | 
[V:2] B,,2 G,2- G, A, B, A, G, F, =E, =D, | 
[V:1] e f g a b2 g =e d2 c2 | 
[V:2] C, =D, =E, F, G, A, B, G, F, E, F, E, | 
[V:1] B A G A B d c B A G F =E | 
[V:2] F,4z C, =D, =E, F, G, A, B, | 
[V:1] A2 f2- f g a g f e d c | 
[V:2] C B, A, G, A,2 F,2D4- | 
[V:1] B2 g2- g a b a g f =e =d | 
[V:2] D C B, =A, B,2 G,2=E4- | 
[V:1] c =d =e f g a b g f e f e | 
[V:2] E F G A B2 G =E D2 C2 | 
[V:1] f2 c2- c B A G F =E A G | 
[V:2] B, A, G, A, B, D C B, A, G, F, =E, | 
[V:1] c B A G A2 F2a4- | 
[V:2] A,2 F,2- F, G, A, G, F, E, =D, C, | 
[V:1] a g f =e f2 =d2=B4- | 
[V:2] =B,,2 A,2- A, G, F, E, =D, C, B,, =A,, | 
[V:1] B c =d e f2 d =B A2 G2- | 
[V:2] G,, =A,, =B,, C, =D, E, F, D, C, B,, C, B,, | 
[V:1] G F E =D E2 C2e4- | 
[V:2] E,2 C2- C =D E D C B, =A, G, | 
[V:1] e =d c =B c2 =A2^f4- | 
[V:2] ^F,2 E2- E =D C B, =A, G, F, =E, | 
[V:1] f g =a b c'2 a ^f e2 =d2 | 
[V:2] =D, =E, ^F, G, =A, B, C A, G, F, G, F, | 
[V:1] ~=B4>B4!uppermordent!c4- | 
[V:2] G, =A, =B, C =D E F D E C D E | 
[V:1] !turn!c2> =d2~d6c2 | 
[V:2] F G A F G =D E F G, F E D | 
[V:1] c4-c =d e d c B A G | 
[V:2] E F, E, =D, E,2 C,2A,4- | 
[V:1] F2 =d2- d e f e d c =B =A | 
[V:2] A, G, F, =E, F,2 =D,2=B,4- | 
[V:1] G =A =B c =d e f d c B c B | 
[V:2] B, C =D E F2 D =B, A,2 G,2 | 
[V:1] g4-g f e =dc4- | 
[V:2] F, E, =D, E, F, A, G, F, E, D, C, B,, | 
[V:1] c B =A G _A2 F2e4- | 
[V:2] =A,,2 C2- C B, =A, G, F, E, D, C, | 
[V:1] e d c d e _g f e d c B A | 
[V:2] B,,2 D,2 F,2 =A,2B,4- | 
[V:1] =G2 b2- b a g f e d c B | 
[V:2] B, A, G, F, G,2 E,2D4- | 
[V:1] A2 c2 e2 g2a4- | 
[V:2] D C B, C D F E D C B, A, G, | 
[V:1] a g f e d B a2g4- | 
[V:2] F,2 F2- F E D C B, A, G, B, | 
[V:1] g f e d c A _g2f4- | 
[V:2] E,2 E2- E D C B, A, _G, F, A, | 
[V:1] f e d c B A G AB4- | 
[V:2] D,2 D2- D C B, A, G, F, =E, G, | 
[V:1] B A G F =E F G A B c d B | 
[V:2] C,4-C, =D, =E, F, G, A, B, G, | 
[V:1] c B A G A2 F2d4- | 
[V:2] A, B, C2- C B, A, G, F, E, D, C, | 
[V:1] d c B =A B2 G2=e4- | 
[V:2] B,, C, D,2- D, C, B,, A,, G,, F,, =E,, =D,, | 
[V:1] e f g a b2 g =e d2 c2 | 
[V:2] C,, =D,, =E,, F,, G,, A,, B,, G,, F,, E,, F,, E,, | 
[V:1] B A G A B d c B A G F =E | 
[V:2] F,,4z C, =D, =E, F, E, F, G, | 
[V:1] !turn!!uppermordent!c2> d2~G6F2 | 
[V:2] A, G, A, B, C2 B,2 C2 C,2 | 
[V:1] !fermata!F12 |]  
[V:2] !fermata!F,,12 |]  


